libs/common/icons/src/icons/IntegratorsOutlined.svg

<svg width="24" height="24" viewBox="0 0 24 24" fill="none" xmlns="http://www.w3.org/2000/svg">
<path d="M20.2506 6.75H3.75065C3.33643 6.75 3.00065 7.08579 3.00065 7.5V19.5C3.00065 19.9142 3.33643 20.25 3.75065 20.25H20.2506C20.6649 20.25 21.0006 19.9142 21.0006 19.5V7.5C21.0006 7.08579 20.6649 6.75 20.2506 6.75Z" stroke="#333333" stroke-linecap="round" stroke-linejoin="round"/>
<path d="M15.75 6.75V5.25C15.75 4.85218 15.592 4.47064 15.3107 4.18934C15.0294 3.90804 14.6478 3.75 14.25 3.75H9.75C9.35218 3.75 8.97064 3.90804 8.68934 4.18934C8.40804 4.47064 8.25 4.85218 8.25 5.25V6.75" stroke="#333333" stroke-linecap="round" stroke-linejoin="round"/>
<path d="M21.0018 11.8425C18.2664 13.4251 15.1612 14.256 12.001 14.251C8.84142 14.256 5.73668 13.4254 3.00166 11.8433" stroke="#333333" stroke-linecap="round" stroke-linejoin="round"/>
<path d="M10.875 11.25H13.125" stroke="#333333" stroke-linecap="round" stroke-linejoin="round"/>
</svg>

<svg xmlns="http://www.w3.org/2000/svg" width="24" height="24" fill="none" viewBox="0 0 24 24">
  <path stroke="currentColor" stroke-linecap="round" stroke-linejoin="round" d="M20.25 6.75H3.75A.75.75 0 0 0 3 7.5v12c0 .414.336.75.75.75h16.5a.75.75 0 0 0 .75-.75v-12a.75.75 0 0 0-.75-.75ZM15.75 6.75v-1.5a1.5 1.5 0 0 0-1.5-1.5h-4.5a1.5 1.5 0 0 0-1.5 1.5v1.5"/>
  <path stroke="currentColor" stroke-linecap="round" stroke-linejoin="round" d="M21.002 11.842A17.916 17.916 0 0 1 12 14.252a17.916 17.916 0 0 1-9-2.408M10.875 11.25h2.25"/>
</svg>
